X:1
T:Sunnyvale, 87.87.87 D
T:Sunnyvale, 87.87.87 D
T:Thomas Martin Towne, 1878
T:Public Domain Courtesy of the Cyber Hymnal™
C:Thomas Martin Towne, 1878
Z:Public Domain
Z:Courtesy of the Cyber Hymnal™
%%score ( 1 2 ) ( 3 4 )
L:1/8
Q:1/4=105
M:4/4
K:Eb
V:1 treble 
V:2 treble 
V:3 bass 
V:4 bass 
V:1
 [B,E]2 [B,E]2 (EF) (GA) | [EB]3 [Ec] [EB]2 [EG]2 | [Ec]2 [EB]2 [EA][EG][EF]E | [EG]4 [DF]2 z2 | %4
 [B,E]2 [B,E]2 E[DF] ([EG][FA]) | [GB]3 [Ac] [GB]2 [EG]2 | [GB][Ge][Gd][Gc] [FB]2 [F=A]2 | %7
 [FB]6 z2 | !>![Ad]2 !>![Ad]2 !>![Ac]2 [AB]2 | !>![Gc]2 [GB]2 !>![^F=A]2 [GB]2 | e2 B2 AGFE | %11
 !>![DB]3 [DB] [DB]2 z2 | !>![Ad]2 [Ad]2 !>![Ac]2 [AB]2 | !>![Gc]2 [GB]2 !>![^F=A]2 [GB]2 | %14
 [Ge]2 [EG]2 [EF]3 [Ec] | [EB]2 [B,D]2 [B,E]2 z2 | (EFG)E B/B/ z3 | (Bcd)[AB] [Ge]/[Ge]/ z3 | %18
 (CDE)C G2 [Gc]2 | [Ge]2 d2 [Ec]2 z2 | EFGE B/B/ z3 | (Bcd)[AB] [Ge]/[Ge]/ z3 | %22
 EGB[Ge] !>![Fe]2"^rit." [Ad]2 | [Ge]6 |] %24
V:2
 x4 E2 E2 | x8 | x7 E | x8 | x4 E x3 | x8 | x8 | x8 | x8 | x8 | e2 B2 (AG) (FE) | x8 | x8 | x8 | %14
 x8 | x8 | EFGE B/B/ x3 | A3 x5 | CDE x5 | x2 (GF) x4 | (EFG)E B/B/ x3 | A3 x5 | (EGB) x5 | x6 |] %24
V:3
 [E,G,]2 [E,G,]2 (G,A,) (B,C) | [E,G,]3 [E,A,] [E,G,]2 [E,B,]2 | %2
 A,2 [G,B,]2 [F,B,][G,B,][_A,C][=A,C] | B,6 z2 | [E,G,]2 [E,G,]2 B,2 B,2 | %5
 [E,B,]3 [E,E] [E,E]2 [E,B,]2 | [E,B,][C,C][D,=B,][E,C] [F,D]2 [F,E]2 | [B,,D]6 z2 | %8
 [B,F]2 [B,F]2 [B,E]2 [B,D]2 | [E,E]2 [E,E]2 [E,E]2 [E,E]2 | [E,E]2 B,2 A,G,F,E, | %11
 B,3 [B,,F,] [B,,F,]2 z2 | [B,F]2 [B,F]2 [B,E]2 [B,D]2 | [E,E]2 [E,E]2 [E,E]2 [E,E]2 | %14
 [E,B,]2 [E,_D]2 [A,,C]3 [A,,A,] | [B,,G,]2 [B,,F,]2 [E,G,]2 z2 | E,F,G,E, B,/B,/ z3 | %17
 (DEF)[B,D] [E,E]/[E,E]/ z3 | C,D,E,C, G,2 [G,C]2 | [G,C]2 [G,=B,]2 [C,C]2 z2 | %20
 E,F,G,E, B,/B,/ z3 | (DEF)[B,D] [E,E]/[E,E]/ z3 | E,G,B,[G,B,] !>![A,C]2 B,2 | [E,B,]6 |] %24
V:4
 x4 E,2 E,2 | x8 | =A,2 x6 | B,6 x2 | x4 (G,A,) (G,F,) | x8 | x8 | x8 | x8 | x8 | %10
 x2 B,2 (A,G,) (F,E,) | !>!B,3 x5 | x8 | x8 | x8 | x8 | (E,F,G,)E, B,/B,/ x3 | B,3 x5 | %18
 (C,D,E,)C, G,2 x2 | x8 | (E,F,G,)E, B,/B,/ x3 | B,3 x5 | (E,G,B,) x2 B,2 x | x6 |] %24

